build/system/RefuseSolid.svg

<svg xmlns="http://www.w3.org/2000/svg" fill="none" viewBox="0 0 24 24" focusable="false"><path d="M0 0H24V24H0z"/><path fill="#74767B" fill-rule="evenodd" d="M21 12C21 16.9706 16.9706 21 12 21C7.02944 21 3 16.9706 3 12C3 7.02944 7.02944 3 12 3C16.9706 3 21 7.02944 21 12ZM18 12C18 15.3137 15.3137 18 12 18C8.68629 18 6 15.3137 6 12C6 8.68629 8.68629 6 12 6C15.3137 6 18 8.68629 18 12ZM9.16796 8.24873L15.7513 14.832C16.3468 14.0445 16.7 13.0635 16.7 12C16.7 9.40426 14.5957 7.3 12 7.3C10.9365 7.3 9.95554 7.65321 9.16796 8.24873ZM12 16.7C13.0635 16.7 14.0445 16.3468 14.832 15.7513L8.24873 9.16796C7.65321 9.95554 7.3 10.9365 7.3 12C7.3 14.5957 9.40426 16.7 12 16.7Z"/></svg>

<svg xmlns="http://www.w3.org/2000/svg" fill="none" viewBox="0 0 24 24" focusable="false"><path fill="#74767B" fill-rule="evenodd" d="M21 12a9 9 0 0 1-9 9c-4.98 0-9-4.03-9-9 0-4.98 4.02-9 9-9 4.97 0 9 4.02 9 9m-3 0c0 3.31-2.69 6-6 6-3.32 0-6-2.69-6-6 0-3.32 2.68-6 6-6 3.31 0 6 2.68 6 6M9.16 8.24l6.59 6.59c.59-.79.95-1.77.95-2.83 0-2.6-2.11-4.71-4.7-4.71-1.07 0-2.05.36-2.84.95M12 16.7c1.06 0 2.04-.36 2.83-.95L8.24 9.16A4.73 4.73 0 0 0 7.29 12c0 2.59 2.11 4.7 4.71 4.7"/></svg>
